-----BEGIN PGP PUBLIC KEY BLOCK-----

mQINBFaQqawBEACyyzW+I/F1bh78BbbOt9pMKT4tZT6AyRZ7QobLFTcq5ovnvMNE
dF+e2oe4aEladwJqTi0b5eYutmHH9mMh3zDmh9JF+xPOy8BDDRJruZgA9MnL0PCg
ZuphEmsMSpkwNYM7Jy4+F5RYFxZ/EWOeWU7vKyZoFx6R8W+5X1gWJD8ud5aIl68n
btflhUTncTfPb8sfMa4XiHMojiDNN51i1aiCBYGACovn7ManezXxLR3yk+7zeZ1z
87dJG8pL7eZgTyHly7HDKKBIRa4VK0WYNIvN1RHKWcGLcGZG3WmqZfcj7eY8gHTm
GWAZ8Fhy7hPCGLgK12lkJHFx13r+bGhhMlw9Zd2lboBrZXbMpiUKzlVfFp0UyB87
sPR4CpfKp0ZyKz7v6/Co7NmXn1kG73rBXY5Q9xJ26Xpckxmm3NbEMurjejTCd0Fd
yobBFxyATUT8d+Ur1pnFfryeH7lLDqwOFmNZypqUcDJepMiVS87PrDDPRGs43HSK
lw7Bz+bpRJ1XkMVrIFj7ajH5ivJLO/5f+bn4cqNO/ak9CiU3bg/9oiRZzB9XJt5l
I168RhGF1PHm76pAECHHB4daESVtpLTQb8WZKXEI6u58lHe+jrZsKWUUOPsUu+US
ALHGEWfXOzvmOOz9GFRLnY8PpTPuQMKaer4RdJVHUO03A+jAp+XkEcnpdQARAQAB
tCVLZWl0aCBTbWlsZXkgPGtlaXRoYnNtaWxleUBnbWFpbC5jb20+iQJWBBMBCABA
AhsDBwsJCAcDAgEGFQgCCQoLBBYCAwECHgECF4AWIQSsILJjMn6cmqYaVaEzumDU
THFn+AUCaftw3QUJFUv6sQAKCRAzumDUTHFn+M7WD/46hHGOrGpbkZJv2h6lOKg4
Ggt4Y9q856rzV3JP9jHnVsfzEo9Vrjopf1M/JEGMI2ir/yofwb5B/Ou3MtTDn9Cz
FiVpqim2/FHydKKTXW5enSInzU5Q0sctJhtkCTVJ3dMbdZGDrrdkegPYHMARHCCP
EFLPKfF3nff4l4MNtw2dQ4PmRB7gtFVys5Lljz/nPBaosKngLlkqnXN7j4E0q+I3
ukK/lvCPS31OmqSMNJ++yA1bNzuI4VZBv0mWt1CIiKMIr1EMMS3r9zcLTZXanXUk
kTPuIEv1GVXN1JJNUhIZv31xIB65OVbaNenaubII2kh08ZdHlLnjzJKte2ymPdF2
8uKYePbjkMJbOrFP9WAhXV4Kp78uqoPd8lI84Fci02e2H2rHQ/SeGRpZTi6jfHFA
OQN/Ov5Rtf48tlEw98byptaYCw/ZhyQtEZs1ShgXfDIgawK3RZ2QzI+SbuwMCsRp
Xfd5rTJv0/zZI52uzG8EgJYxrwfEZHPGpWEhHLh4TBEIqEhjDvFv13aF0hFQGjIT
l7HH1+vkP5qmMdVDb/BQ1oTJ3L6DtXrSUclEPYRLl7sV0LsV1gqUOLW/wKOrOk5U
Af7PRAjI3do6zaBf2X5aXKdqhLYPJxa5dlfdZRkU8JnrzUPqFPAzVomzSZRAvHS7
LyXDJpdtvWbyXL7QEenopIkCVgQTAQgAQAIbAwcLCQgHAwIBBhUIAgkKCwQWAgMB
Ah4BAheAFiEErCCyYzJ+nJqmGlWhM7pg1ExxZ/gFAlsAunMFCQv03scACgkQM7pg
1ExxZ/g3iRAAnkZ7QbJR+V9nc8VehMt/3KQVKrR7p7JWKeBMLHH/LFsVVbV+qXIs
HyRNSe6Oooxn9ClRFK/g4BP+Bx7TUv97QNUkRKupxZxNVJHyXxpKrCBN+BIhFVLr
K97yjU5cujfQ0BT3+UCdD88JiJoDcFZG5YvuXTVoEmf7CUovO9RT6ZVE2Wp4ajlW
d5xLzWXTdDhDqrUb/mqfEVgpOR6SZEziJaGvAuLTxzCreDz9cNrrosRnMGzzCP04
W6kwcCMZQdSkCgGIAW6N9HzKU3KoF2quWEOoouA4bi0LZS/5re769lIqdTEc6uYa
U9oRslevcPU/yad3+2g/E+dVaHSNCI+h+qnlpMRW9VE0+HMNWiCqcNiggP6duVcx
ENE3w+uBCoYFX0b+xByT4zpWH/kNABN3kC2CiVJvNsF35XUWzRcKwPgj2ZzJcMmH
23/XFmCZ/JToTqPR4DxWzD1wAdf8eUosKbij7kj6/5dok3ZJlgv27aehRwFbFnKj
kHl9JX6PXgcgW4IG9rWPryesvv2gIsKLPftdmWsH7Ea7W9xDAGjIC6t6Hb1vXPMB
rY2tUSUuowVBnHJlzMUeUKR+IWyTBmMKSDnK8gYtY5bPZKuULO6xsEU+lxgwN8/p
Y6TEc97Ju3sANS6gO+wYN06uRsk2H+XeEcGgVpa9+pGbREpbVTh8uzuJAlYEEwEI
AEACGwMHCwkIBwMCAQYVCAIJCgsEFgIDAQIeAQIXgBYhBKwgsmMyfpyaphpVoTO6
YNRMcWf4BQJidW5WBQkPpyuqAAoJEDO6YNRMcWf4L48P/3095qed5u4Q5Bp7bE2g
4+x+4wSTJ11okSCtwembYE63Qe4BKdHnl6tH7FidolokiMNS25h7lq3zo24zYkaC
t9OMD2TmmaqosXdJJRN8wIOWTVGCGDU1TzOIshRgbndUlUfosO/6+vBzITCbfpSd
UZVudBBMO/l8U/8+YWkHLoUnf53uQCyfMXIlZI9zTIX0toZnpxmdp5J/8pKiAAvd
J/rOTNqHavveP54WARuiL5d+WeqF9ta8uPnwlIbQTfHpfKCnkIro+3ptR/mjujpk
t5CwUxFnH42J6BaIiFZpDozQt45Pm4fYRkYVGRnepSBmb1aWWU4B6wjnbF802uO8
bBJmEFd4jTE+B2EcqDfEeSUAtMbp/4Jft62DwkKtdZuILkSDSzI4A7XoGLGa1kCy
jRs0D/mSEbdp+r3zm7AwczoD8Ifr/im0nMq+FETz2/Ba0UjwnzJ3p0UrmJH6py2r
ouViLAU97CvMNscmvCoq6UobFd2xkpUzWqN+sKks2ajeU4E+trWEqWvK1aM6HbmS
m19JCR9KzJUa7v+91mZ5idKa9NOCGsgNmKpg0uWZvzuTbWxIGtRnw/WvKN1fw9cF
sqC4BF4wCsK0nmcQIHvv2lh3WvYUlOfh66X4vQH6WSlElSd/ukk4z97xEq43Dnm2
wTR7lYI0lIT1CtP594iDOSroiQJWBBMBCABAAhsDBwsJCAcDAgEGFQgCCQoLBBYC
AwECHgECF4AWIQSsILJjMn6cmqYaVaEzumDUTHFn+AUCZjkCOAUJEYmMDAAKCRAz
umDUTHFn+Pm6D/40fNvSb8bo8ZgC+iQzoAPtPottEWaPPv0PL+0nsGnrtrTeqoIC
5l1ZDKH4POKsmd63akYWZUQOzvzRi9+zmEe2hoUe+JCaNYCiA5PiRRuVdf7cgwYo
loRu6lUGS+Ovk/zICN0xzZCXRz7UaYt45eTCUg7SZAbEU1xnomA4I5b3IxdbvDGL
GU9MvHl+WBxflOXhPQd7ZcJjKi6p8j4fmyPk5fD0ds6atRLzyyYIjvDrmCxL6s38
ouLV44dJf6c6hbL17c+gMbXuGwtPE7RpnQbU85rfWr7lrY8SeiKtZBoMJMKvgP9Y
rcG/LZBCrYY8RSsET3v5TyWY6+bCFao6Xv+y5PQIDKaBLyZNBGSlSdqL834sfmzi
U27XK5e/vBOwXXlI5g5pNo/uQmkDmcu0mWKzsgGEeTVhTCSQkvbzCaukYhHxh0Uj
m5QVGVi9A5b7YakGVWWr9RcHkJf5uKDSfudwK9Z3qGCVqe6BBVNSh9hlFSZNi23p
vUGTI20sipUJZuYxKIxeB+wQOpJETprZAq5iKRr6ejugmpyAJuqNaQp3xcoZqOgm
TqF/U4iIrixdFEcK/ldmzlwHzgEshci3Z+GzFpmMD+FbCjdEyx/tV5OCsOu/TUig
VmmUsjVHWFYO09rco+VWdUBqHOoxaI/JfHHJhffEX+VjuDsSARwQVIXoQrQZS2Vp
dGggU21pbGV5IDxrQGtlaXRoLnNvPokCZQQwAQgATxYhBKwgsmMyfpyaphpVoTO6
YNRMcWf4BQJidW64MR0gTm8gbG9uZ2VyIGhhdmUgYW4gZW1haWwgYWNjb3VudCBh
dCB0aGlzIGRvbWFpbi4ACgkQM7pg1ExxZ/hPTA/+Lj3BuBL8sr5yEd2X+pmxCB3f
QuRIwnov1Do0z2l3rHMCqdl63tzSc4EzDHRSKMq0d54r8IxiG1F4jRIprzVeCp8v
8+NUlErY73tlwky247kaJ5AkAac6uAmy1mE5A2ULEwdLnRYkTm1m8z9YOjf5BxnW
UDlZCjJ6kz09O3B92VezQPQQcRc6/EV3LtxJschmIO22r7d6KQCFmBe7QR21Wuhd
b2lKFMC4RwTxZs/6UXq8RjpLRJxKAuy/Sly8NFJQOD/elM5tvZCQ7dSuZjfjsozc
KNJTtE3RKvtKPsB/ILh1mwgUVTrPJyF4CBj/LZrReuzJAa59AKnmu+3cJw+5CEr/
VO0KWQfPgObGrC9LuxhTjqdDa61omGlECnPh60eW4DqC4mT/bKKpMpRDK7chzq7Z
sygEFd+LkSFj8rdC0iuDa1zt2STN2iTuioSFtfd233n0PprNdWl29Tj/8txN/wS3
t7F0OSDVuHjMqCm3Tt4WfTs6zZ55ogKgeunCs1HDHvbQNox8ExGeTBsrRmXtbekE
D8LB6u4ZQ7hlhjFK9ymEGlXDdJKthiPJXTK71d09H8WqazY1T/Wroj95KoXr6l0C
JEiTm8bpKWsOTo8Ko7z51EkLSRG5M4Kd7FpDNMZawULs1f4AP+kAKn181OIJkrz7
oCH/3By8B7eWI2ZnzESJAlQEEwEIAD4CGwMFCwkIBwIGFQgJCgsCBBYCAwECHgEC
F4AWIQSsILJjMn6cmqYaVaEzumDUTHFn+AUCYnVuXgUJD6crqgAKCRAzumDUTHFn
+HxWEACICzdWJnvuzyfY9xKLnIEV7hmp5W4dVbP3AzMrFuDwKq6mDW7G1Bh9PT4D
xkpgGPQB8KkfhmmssoyEyAy30perk/tJDpp4/orFkmZdT2QfQFHWJ9jErCeQLNmo
O2U+dbq4CGa8l71cRkoiGGQg5tYHeM2BYcPQd8ME1YS+a2mFPf5Oshk9xV3z9SML
0R5gZeca0EnguV/TAmqH0Maz+8dKGyHQwCTDGdP86vxCrUhUYqZi3LFQiDwy6KRI
GUk5zyiuyOdk3lYwvMP7WIr4PAOyHwWIxkDyfoiZ6K7Ga+yp4oyc+xmte2R1+XOZ
TsAOQ729p9TY1AsDzVeFu3R1im8c396Am8NS1ruRuozqjAzh8lhRz6DeaKfU8LC2
rE1K+l/2QZaoAl3RXBAIml9FgZZEzFH7M27k5+JfuY2IkOvGA4P143T17f6sH1N4
7xbjeoFLg4k0vscErEZdqbfEA5JxHVZolkOoA5RpJNnboHfbm496Fg1JO6orpO8p
GdZX5m4d0iQFXsLo45+/NWVUSL3bE2/uk6CiXiM7SoNiPeadZ4mXUJJCbc5aNsqm
XRKajKxtukVKAa8t5b57JaNhH5ma3zkv/qm8z2FjtBqndRh2k74PD812k9O2bv/e
+W7SasWuAcSPm4iRLOeMpTmHNqtQ6FFbQCW49Wi2P3BzHMsX+IkCVAQTAQgAPgIb
AwULCQgHAgYVCAkKCwIEFgIDAQIeAQIXgBYhBKwgsmMyfpyaphpVoTO6YNRMcWf4
BQJbALpzBQkL9N7HAAoJEDO6YNRMcWf4xKUQAKqqY7cA2+bPzGXHsvlnfwLrnMJe
bDWQA7feItayHM30Wdhq7Oo5pJexZRfvIapEQarqkc6enxjDAqkM5ZjFNulx3qnC
p9h9kmkclUynllSS78YgcYsZtxv95rH/E8JVy/u/37Ggck4+4408OJen5QYLUatZ
HBIELSppZq6tnsOc2PDEMZPBQUV1No/TVL6oCPRbgI9I2fwEBL7JfiXL2Dj2V6WF
UC4efFJCPfND6+Ue41VvEhhd4bjJ7H8XyKi24G/2JVHvgiH/waqBo/9+lJoIPZEN
+z9SVwB1jcMul4HkSpnW0sCkcHPhuy8Zwpe5bblh9wjMUGGLm3bI1gC0qA1urAn+
YPF3o/J5+0yBSb5gumFfLYYYfrnCZdHMlB6D7KVfdPqWvZ43rvHsil56lI804t4i
xRc7WhJ/A11M/l/nvJCecshHxmk7EACgqrsHyLl4EaW0ybHBmZdJbN2+0aTQ8jB8
hepnHzW95x8B6ydk4sK92Qed9oM9cjne+RAUYXf7+0QyaGDlS3EmJud6vVJ9Rr5w
nLCxasAXrdha1227/Kb/WokF5HEKJx82a3i+4TctJYJ+WCC5fCg6F3aQiIbZwjTh
8kVwd5RI06LC1dt2cujH6rDF96FKvS/si1sZHKITRxr/oZ+GmAl5WnvI+o6aZo+x
zRcydx75/KQbOPLf0ctxy28BEAABAQAAAAAAAAAAAAAAAP/Y/+AAEEpGSUYAAQEB
AEgASAAA/9sAQwAgFhgcGBQgHBocJCIgJjBQNDAsLDBiRko6UHRmenhyZnBugJC4
nICIropucKDaoq6+xM7Qznya4vLgyPC4ys7G/8AACwgA0wDGAQERAP/EABoAAAID
AQEAAAAAAAAAAAAAAAADAQIEBQb/xAA4EAABBAEDAwMCBAQEBwEAAAABAAIDESEE
EjFBUWEFInETgSMykaEUUrHBM0LR8BUkNFNiguGi/9oACAEBAAA/AOtSmlZTSlCl
CEIUHCo+ZjDTnAeLylnWQf8Adb+oVm6iJ/5ZGk+CmAgi+VKEKFChVUUqEJ1K1KaQ
pUoQhJn1MUAt7gPusMvrMQJaxhd56LHqfU5JW7WktHWjkrnuNuybKi+3KkE9U+Ke
ZhH05HfYroaf1V49swvzwujBqopR7XC/KchQoUKqik1SpUoUoWXV62HSj8Q27+UZ
K5c3rUrrEbGs+crnSTOleXPcXHuSl3zai1P9UZpR0TG54u1ff/N14KY15Y4EUCul
o9cGkMkvb5OQuoCCLBtCFVQqp1KUKUIWL1HWt0se1p/EP7Bede4vc57rJPfJSyVB
7o5RV+PuiqqimBm4f6qroiBwgDHUHorsbvx1/ZMYHflIsKp3MduFrqema6/wnuHh
dcZyEKFVQmqUKUJU8ohiLyV5aeUzSukN5OLS3flVEdVO3hWqvJ8ZV2jdisJrdOdu
5pwo3Vggn7qrmtOQChoFq5J5vPQ91JdvbfX+qRVEObzz8/8A1dr0zXiVojlPu4BP
XwumhQqpyEIQuF6zqt8phacMGflck9FF8o+FFdR8Kzec5TGts8YTdwAy42FZu51b
Tg9+Fd8LHj3W0j7/AKKGhrfaSPB7pEhAdXFFKc88fupbJ/8AfhW5cWms/wBe6lj3
RSbqzeQeq9BodUJ2bSbNYvqFrQqpqlCEjVTfQ075OoGF5aR5kcXHJPJSjgqEccoa
VYBWaBdHHclMoVwaKmN2aaaP9VZ73DAsHsQkl3cEfHCoXEnuFWwRSjIVruiOVdz9
7Ru56nsm6bUugkGcXa9PE9ssTXjgi1YqE1CELletSbYA3uuB5VDn5U2Qool2UxrX
fClosHqeisHVzf6JgNCyL6qWFr63VjsVaQhwABBA62Eh9Dk18pTuhCg5/wAqjhRa
s1/dWHyu56JqC6MwOOW5bfZdUqExCELzvrUu7UBg/wAq5jjQrsqgkFXAAFk9aUUN
3weVdzifgoBzzSZs3t9po/8AkeFAsH+byE0fTuyMqHSMGALvuFXa13+QD9lV0OOB
9kt0YbklQQOgpR9O+aUOaByceENP6dl0/RT/AM4AD0OF6AIV0IULy3qD/qayVw43
UFljaHOoi8okbUhrgGgrbbIbwE7+Dfi6FixapLp3x217SL6qGtBFUflMY0Cr/ZXM
bXDGHfqEbHgEuHt7tCgjaMNJ65pU3NcOEqUOaT/spfyp3DHuIQfklQL7YUEUt/pR
vWR0c2vTIVkISNW/6Wmkf2aeF5XL3Hvyoadp3ZBVXZlvOV0NNAHx28W2/utA03b3
eCrO0TzhryAe6yu0EzXWSMeU6Bjhh7N324Wr+FY7Ix8KW6QNPNhRNHG1v5Qe65jp
YWuIbFarJHvPtiP3CyviLeh+6XWc4KjCnF8q4ytPp7D/ABsVGjuXqlCshCz67/o5
q/lK8szDgFEoB4VGNJeBWV6SCMfRHHARLMyBooW48D/fRY5tfIGksBJv4H+pSG6i
WeUtHuANWCQFrhEgfRs+Ct8bQW5VNS/6bCfC5W+XUk7eB1OAAr7f4faSHPJBOABg
Z65Vo/UI30Kq+/VErY9Q3cBlcvUQlhJFpTWlxocqHCqUt5+Fu0N/xsTvK9OhShCz
a4XpXjJxml5p7QzjnykE2b5CbpRu1DReOi9IxgEYb4rlV+iBmrvlDmx7fcz/APKS
4M3HZHZ8NTIWuGS0BaG4Cza0b4XBZtAGOh2nDmm/ntafqoo9SKe7oRx3Wdmiia2i
LHGUuOP6MlNO5p/ZU1MJc0k4HK5riRTWiupVpTuA8BL4P7roekN362OxjJ/ZelQp
QhKn/wAF9OrHPZeXl9xdduHfv5SKIJWz02Mu1DT27r0A4VgoIUbQoKjJCy6xxDFl
0h/GPnK3GO8kWo+k08hT9Jo4FJGob7T2XHdTHu7nhLfnceKVWguAXa9E0xDzORge
0LtoQhCilxNVp2f8SEbaIc29oxQ/3lZJ9MYn7S2+x8Lf6fEGRgkZ7re0hX6IOFW/
1VSbKmll1bdzCFg0j9k213wuw3IRVKjismoPsK4+oJa+++Epx9lDqtWi05lcxme5
NL08TBHGGjFJiEIQhcn1RrodRHqm0dv5v7rRtZPAXAXuFjqlwYaPAT2m0wEJcsga
CSaURAkbiK7KHSsZhxAPkprXigeix6ydrcdVy3PvcRzdhdfRTCeFrv1TykyOwsM7
8ELnahtgfqqxxe739Su16LAR9SVw59o/v/ZddCEIQhUkY2Rha4Ag91zY5xp5HQyN
2MBphrnuiB1gmqaeDa0Ruvz2Vnu2tsrGyT6jzI7NH2t7eU46jbg2SlPcJXC47odR
aHbns2sOx3hc3VRSvcS5910CXHG54onx5XU0DPoirW11LPKab3pc6UncQsrlt0Wg
OqjJJLQOHd/9V2tJB/DQCPduo3aehCEIQlySMjFvNDuVxvVZBI4fTk3HivCnSP8A
qQZb15WuNxBrxlX1DS6BwHJCyuMcRAedrTg2rt1MBNMo/JTWytPAH2VmiO92ASky
xRPBo5PVY36ZzHFzHC1eHUFr9r8OXQY4PGOUqcYK5k5o4PhZJDd/1XpNA8Oga1g/
DYA0O7rYhCEIQhQRYo5XI1npznlzgImjnAorNpD9Fxjd06ePK3k0cYHdNabbaR9B
s+4PFtBo2qabTtgkex3B4NLeYY31gcdlR+nYIicggd0mTSEVsfZNXYWHUxSwbiSC
Bmwf7JOncNS/ByCujpmGOQWaBFI1Jqxx5XLmNF1Zo0qQ6d+pmayKr5+F6XTQ/Qgb
Hd0nIQhCEIQk6iP6sRaPzdM0vPubPDqvxWuIvnlbNweebHRPZKAADZ6J0bvb+9qJ
o94BH5lSO6qzfhML3lpBcCOCKVJpnuBBcG/HIWGd5e83Z3DaRfRM0sTWncGgfAW0
EE7jyAVh1kh3YXPkN5XW9Gh/D+s4eGrqoQhCEIQhCXLEyVu17bC42oYdNPsv2HIK
YHEx+3PccLTE/awWKJTWnCo9zRlwryl/XbmiQqPAcL3YSxGCcJ4Aaz4Sn6prbvp0
7rBPKSSf2S9PE7UTtjb169gvTQxCKJrGigBSYhCEIQhCEIXM9Uj3U4ctCwxzOJoZ
B79FeGU9Xdeq3sdeefAUygEeVl/h2kmj5Ku1le3d5yE5rW0UrUSU2lzJ5qKyk2Kt
dn0TT+12oN5JaPjC7CEIQhCEIQhCy6oWevC4ksf0pqIx+nPZUY/Y/Aq8i+63QSEA
Euu+StTXtdxaNwuqVXubm/1SnyhlOOCseo1FnNEdlz5ZC5xBQwbnbV6j05u3RRju
LWtCEIQhCEIQhZpsyfZZdXCJY+MjjwuQ4V7CaIKhkrmkNK1w6npwenwmmYbRbrHK
q6cOJF55WGbUOLyPt9lmfJhUBsrTA2s9V6jSjbpoh2aE5CEIQhCEIS3yxx/ne1vy
UsayBzi1kgceu3KqSHuJHHRBGM8dli1WkD7LSAe5XLljkhJsfdJc91Gj1+6n67tt
FVdOXDskl5sH+qACU5jK5T2rQPW9RC8sLGFrccEFbIPXYX0JmOZ5GQulDPHO3dE8
OHhNQhCELLLr9PE/Y6T3eBayT+sNafwmX5caXOn9Snlu5CB2bhTpNFJqh9WV9MJI
AGSf9F1GxNiZtjaAB0CazhMCgjBCXJCxwsjjvlYJvTg8+0AdcLJN6ZIw+0krM7SS
tOcpf0SDm0xsdVhM2kKRhTJGyUAOHwQscsLoj3b0KtBqJIX7o3lp8Lv6H1dkoDNR
TH9HDgrqDOQpQuX6rPLE9rY3uaK6LmxyPdI4l7ia7pJP4/8A6lKlJvlV6Fdj0Yk6
V19HGv2W53BVmq4QhSQlEAjPlJka0jIWDUNAdgJQAvhWoUlHlDUvWf4I+QsXVOiX
f9Eke/TuDnEhvHhdVC//2YkCVgQTAQgAQAIbAwcLCQgHAwIBBhUIAgkKCwQWAgMB
Ah4BAheAFiEErCCyYzJ+nJqmGlWhM7pg1ExxZ/gFAmn7cN0FCRVL+rEACgkQM7pg
1ExxZ/gXUA//ccEdoOAfcZRu+Y/QK7JVj1HdFDEhhBAGXGrVsZgWj+x4BB7o15a9
yx0YozZLU7a4NvaZNs0q+LQdjdO7lPNICerYdyCrv1NLjnq2d7DUEp8ZasQskPq7
BuybKo5KWuYdZ7F4mHRRR5a9k6jICyEOhf8y43YLfW4UgzFxel2CAYFhyA+by0aT
cg2xb+lHG7Mz8Vr+8d8uHZ+BB+Cqp3E+QSpCK8ku3QbhoQVWVe09vrbyAbdBxZmH
o4hBF1X42bFp7u0959GErG5lRQst26yUKtRyaHtsOqYuXQbEVD+vshaWLct1GBl4
pSBRpOPBHVljcL0VxV0CN84p2MeXEP3Qcby09F4iqhtMPbyST1DaQ3XtjPHujB+Y
c9G8Pyc3k4FX34cmRL0bnO8GmMgenaPWBeg6bezz8Wc5vYq9Sc3DLWUZAyfUBj59
o/ysu2qbbcE0VjS8qGjvIPANnCgOVnz19xQEB+TPNbLrC4nZ9+vDk85UIO+YjzkC
wn7DpXzTtWd6SYKW3VMk2bqZi7mECQgQKmaW25lN7O+XFqHPQ10u9VViOkb66tBQ
yAMacVv2salhhUzjeHE6Ki4BKwib3XgtSOO9u+mGE+ybeoSnCXAS7PTxTY27OYbv
Cyr3xuxM+S1ehizYlD5tekDd0E7Otl/GuZUc8PzUfJ/s92fYAbBKb8iJAlYEEwEI
AEACGwMHCwkIBwMCAQYVCAIJCgsEFgIDAQIeAQIXgBYhBKwgsmMyfpyaphpVoTO6
YNRMcWf4BQJbALpzBQkL9N7HAAoJEDO6YNRMcWf4S/kP/3o8pAZs5OSzGEyKFqs0
oYuMp5j6wuLNTU0A3kc+NIsA1o7kOJe6iiuGLk9e3ckbHEGXUz7QPfJTUmIturhR
zGVDSPqkEcumxkM5DHpOKJHt0z/Py5xA8xCR9fK9YUcAKeqMv6vFMSQZG7Sm7nfE
tmUVxihOYvTWI7rJXPwOWogwIenTuZIyN53t42bZnYTrCDOwBN8uJI49pP8hFadG
NLDHRDPBV7TVXR6CWkib4U/oBU5KfcbUHkiWmPNBlvuXyx6TyAwpMyFzGpALAiTH
f1jJRRyLKRwc/+TV7XXWlkRdM0L+78XYkgWlgNA73uR6QVRfhu+0ezLACB8Yv0uV
nO6izFP1znuZgQMwtal120cLakQ6khIkNI56/zInyav+78jc1ugwZALa6fow4fqO
0nY2GBCeZahFxlM5deRcYHkb+GDfvn6rRdz7zOpi7kTIrXNcITeM1Zhvi13AdSFl
Z7MnrFZuRuhKds4Di/TQHDbap5REJ94GSQZqUsiVT2W4PmCEcgcZWru2mnaLj/HI
MeEVfhCp18ku9v00Z+9zAcJdEarpQ3Qas6hPeS5hnS20uGT6tTyI5fH5u9dtxoFv
9zdtZNKe5v2rsXjH4BPf/7eSZiB/FefSjwsMn+SE12tbJyod7mj0ydEJa5Lu4p53
5pF8myaoH1sNbPqcyMKrEn00iQJWBBMBCABAAhsDBwsJCAcDAgEGFQgCCQoLBBYC
AwECHgECF4AWIQSsILJjMn6cmqYaVaEzumDUTHFn+AUCYnVuXgUJD6crqgAKCRAz
umDUTHFn+JC3D/9/fAIHv+6fj5C5dUPnkHGHxhBWnVKre3Br+Vra7yLB+J9OKVHZ
bzAofpz97RJUV5/Iye4iEuW/MdAkRO1bgMomLdJlIWZ3jZkNGlYy4qISJBm0dc4q
oYLEAcUhgdSDNf05ogK5sGHquTSl0tgqA+AtdoGPYD6Xg5YPsn3EmXAH6/fcs5Mq
BM7EuWlCsDZcmyVtcvXtDuPpagbLn95MJGBOAY/jBEUY4Wlc0MHSnpha5Ojv6c2F
JVvAmEC6apdVdUMtlUOc54l+qrTwb9AkdCCyKFsQNQx6wmPLklpg6tk/NhOsGVKm
4CVLXtdWtn7tVikR8EYuNrRtioVUNLP+dd5BrBXQV8bms2baFiJyOqhW3RuuohBm
aZNDnoxjVZsAQpkRsekKGfwZfYrkOiPvv8P8YuUXxFlSdn17sWx/cv/WVOips5Yq
LKJDDTMdolDkPxI2PTr+y+SB79sBdcSqc1luu1chOwoJ96T5AGWDgbbiYh7J0ehc
W/7LT6ST4gxqR+nP3WmAf9qWOczvYWplJZdhWkBRcKO7ypTNDhbD2DmP3uE+PmEr
2lgRyiPTXdtRllOWY0ZNhr4kBM8UfxltE1NU5HAbOy0eBDVMaOAv4guV+0qZ0Slb
vM5JJZLtOoZ0+m140+ey5lrMCJvbDPJ6g6kV9y7rScxVW9GlmX2IDeDpmYkCVgQT
AQgAQAIbAwcLCQgHAwIBBhUIAgkKCwQWAgMBAh4BAheAFiEErCCyYzJ+nJqmGlWh
M7pg1ExxZ/gFAmY5AjkFCRGJjAwACgkQM7pg1ExxZ/hY+hAAsYkRdSSOBnluVXkJ
CzkD8AurTZQY5nPnQrZ6aMilUU7Myd2WyFuHtnKfauqlEit4fQHt1w9I3+hTS6a8
4UtmCLdnAS+kzU7G6z9im/Bt0wMWaIkx/h3TeFhblkQ998MS9QUnaBAtHLRmCvc6
Avn6f/C8h8bFnf7NpvTPUd+O723rlH5PQkHZf/IbNORD716NQt760bAtTfV5x7Rb
sI0TKwiFzo9XKrUHklUqpRmgcjb02xWiI6mwC0fKWSCWgRTRfQoChHQuoUsCx9wL
anTsUCJT+dbjBDc43KyvZojUq7ta8Cq5PzdZNefft9w8tvKol/nSNy5tAVaqw3xA
Uczh74jSF5kXyTDyLslPBsge/Gu9Xwo4BJ2wI2JcMBwMbokWnUtr83Ktsw8s3FmA
2M743PA7v59BQmZeyQCIfXAM7qqRCdQhG0LTSRNFOs+FW5bFyJOAEDwlAlmvXX6X
WpjVT4hs9gnGa3iarO3MbKF3XN5lGUUWmCZ2+iqCZje670b6gET5w2LHeuZF5gg9
VXu3yStiiO9jmPUcznGNdj6vNwcGnDOyzf8tzp74U9ouDetPK4u1z5oPojvO1O3S
aHVWSkc0fo9IXH5ZQmJ9Jhr/PV4wPQUTy/Su7xSB1tWC8heKOFEo0SO4mvqqUBv8
8AXJhOmMCcf9mQb9b5qtzU74sW+5Ag0EVpCprAEQANlWefCIyQJiJCuJEGHnP9/U
xSCLUyj1XS2K1+zYBIlNN6kX7derEBif84L+yxDabYVgNgvGtyS58tYh+PPCCb6E
TykEK0fGO4nC0zmeSxhRRwxiQphErZWFh8p31SdMnRdVGKiRrd3ykmI4p2EvQnjk
xFLtEA9AhCs2mnswoY0BCEyDXPgRrOM3p6L18sgrLXbn+k6/cAARFrmUrm2qk1aX
SYNAReclRd5r+j7uivRJVPWDtWSw0tmK0pVn/Bw+VAgcVjlHg4GvvbVaWDBPBGut
aWUE6u04L8KKnBN3AZT7r5OEdkpNHGaKHIiHd0FdWHvMNuuHbPUBzg+w0Mp/Qbi2
Hwy8VVXMYh0afvEayuBCQ145AdySDab+qpazIQbfP2qWYc/B/0BRhslyNPGILpba
KJpIGaFDcaK6ojC4EMpA1v8xG3ulBUTXYX0WQfN1hg2KGplf6iGgUrL1nM0MZlxX
Tq9tsOfTWMik+7gsQpbx22+AdYW4Uj7HZsmyZc93EawxE7jZnQkLYb+E+zAUZUWM
EdfUL636hcdlMJViR7Sstbq/9Mu+vrc2qPHKC774+eeKn6INbCo+ud/GCH+0QKv/
kztSG/0Gt3rpmZo7Qeszk4ryxYd4o8774oHq+fwuRDuQcJ3S8E+tr0+w/ohtjinP
Xj2RlPJcUBv9bFjJObuHABEBAAGJAjwEGAEIACYCGwwWIQSsILJjMn6cmqYaVaEz
umDUTHFn+AUCaftxJgUJFUv6+gAKCRAzumDUTHFn+N7YEACf6gTViOgyjb/h9QrL
adEOwFQIU/SXh9F+KZ4Q0budhXhF9ngNZmAbwHa/TTiPrNb6Bz6iMU1LvTt14W9n
C4fnahXQ4HDe1SsWn04pP0EEZGahZdhE3+hUxVGi5tH4PdRGZvUgnKHnn0yI5rin
URgBEm/k4pnVAcInlRPOwWBL2IInsy4ZDW+Fk2TThzcoqhmqma9BGsYVjjYiiyBf
UlBuvXETBTwoCon9wdtJOegSHDME9hJrRglTQXfmNYXcLkmYO1b4Uw+A+PQ3zBje
njhT0HYKeVE+HgQwUDy5P7iIlnijJbB16+Ar/uC9JjZfirBcWcwQZUcKxyWJblZS
knjTmHeuKu4aQidgcJXjApGQNonYozjooKYtm9n5EGL4pXrSltPpym59hBtFPZAn
2E5k8qGwFNF8bIK8c/mVNZo6J2MnsRNxlcr+b2xhcpIWpRVwLJroGS96MGc7XVJu
0ypTRXD/LdiH57q/acipjRdZ37HAXK3/v7OlhY5HQsr5KbTLdR7XUgQSicgAskF8
r2z4S88N2gpaS4RJFI7klnbBKQs3dZxqAmMRZWazvnbYZ+AfAghtwTWT/bc1Ajgr
19nisB7rmdhmp78sEV+wrEyJiF4BnDEYKvSh7H7Ztkto0K3NhQCU7XnzmVM7lKvl
BGXPpCIyJJNyKLUcMai8xIXv57kBDQRidXG8AQgAnYg0kogotLyQL577WAr+M2VU
c0ql88PAa35ZDmW7c5MqyPPjYy6t60FGkF1sxSDLBCG8V8HhidYIX1EzrOobf2AD
vbcD5IFrQ0rpGa1f7inHwJxq07YN3WxgR6/zIpvRfH76tNkqPSfOFXm9xZT7qTXi
/wbXYaZOLR3SUgRIpeML8P5ype8Uya9tzyqvmzqAHqbQR2rWHpPpi1xRGcXvO04t
4kyMj4h5a5MmG3Izw2L8H+XcZFrbuop5KiH0IQpEnzMg/ZQNawvEwjJjRZKmTdZK
fwZu596vSH8kM090/sDvoqEC1WzhJEPzfQXtTuA2fcepLueKNQdIZe1yieRJiQAR
AQABiQI8BBgBCAAmAhsgFiEErCCyYzJ+nJqmGlWhM7pg1ExxZ/gFAmn7cSYFCQln
MuoACgkQM7pg1ExxZ/hPkg/+IjnZtQEFmvEmA4UobTHqrch15YzJTz0WyTyN7mEt
Fk6+CN3hI8Djr+0dSRNJB8OjOMJmSSsiFU02Am5HiRDKiojkK645q/J+p6yiVm5f
BANs3oX9SszfRvv/i6ullkc69G8Inph4ef2YuMD0l7F9nB0kHq5T3sStggLFrUsX
PGDH7gRvCZUEX00ka3U3TvX5PA/q+F6x6M8q1FJwPF95iYU1kB8hQqoLfAfGw78L
I706jVsHKhDZOqQC98WMI8afWLOAhI/E4WfhNNbd7U2qTEaVcv90zoas6btnlhmN
PF2LSEWW5Z5wkn505+0PpX6WzCi+Xv+/MrWzZ0rzgzpE2mBHTa42Ff7J7czm2IpT
1c0ZhPRJhUnApMjJ3JvtZ0/QctOJQXHVU1AlFSILnh9OtAo2uG9hXN23TuegXv15
PgarefIrJ920CNBsQVTF+6vySr9S4lx99UM7Vq56v3nzBZC0csKYxvxngzly+ZHF
h7BOlJck+TFMoMYaHLj/e7WiLczIzDfQuqOul7/tHHYmnzyI3/rFixoYZ/BpTHgQ
doNINCRnUhn7QB8oZFy4djsLCCQJx04kxcByssLr4MdWgOBNlSJSMkpbN21JKjmy
C/Pwh68YCxegrJzwRQmH9hUaWQ2Sbs3ZBfdsSOnaZvK1Heirqxry1aaSbbM3FyZp
FHY=
=uRXS
-----END PGP PUBLIC KEY BLOCK-----
